packages/ffe-icons/icons/filled/md/request_page.svg

<svg xmlns="http://www.w3.org/2000/svg" height="24" viewBox="0 -960 960 960" width="24"><path d="M450.001-290.001v22.693q0 6.923 5.192 12.115t12.115 5.192h24.614q7.231 0 12.654-5.423t5.423-12.654v-21.923H560q12.75 0 21.375-8.625 8.624-8.624 8.624-21.374v-120q0-12.75-8.624-21.374-8.625-8.625-21.375-8.625H429.999v-60.002H560q12.75 0 21.375-8.628 8.624-8.629 8.624-21.384 0-12.756-8.624-21.371-8.625-8.615-21.375-8.615h-50.001v-22.693q0-6.923-5.192-12.115t-12.115-5.192h-24.614q-7.231 0-12.654 5.423t-5.423 12.654v21.923H400q-12.75 0-21.374 8.624-8.625 8.625-8.625 21.375v120q0 12.75 8.625 21.374 8.624 8.625 21.374 8.625h130.001v60.002H400q-12.75 0-21.374 8.628-8.625 8.629-8.625 21.384 0 12.756 8.625 21.371 8.624 8.615 21.374 8.615h50.001Zm-197.692 190q-30.308 0-51.308-21t-21-51.308v-615.382q0-30.308 21-51.308t51.308-21h269.306q14.632 0 27.893 5.616 13.261 5.615 23.107 15.461l186.307 186.307q9.846 9.846 15.461 23.107 5.616 13.261 5.616 27.893v429.306q0 30.308-21 51.308t-51.308 21H252.309Z"/></svg>

<svg xmlns="http://www.w3.org/2000/svg" height="24" viewBox="0 -960 960 960" width="24"><path d="M450-290v22.69q0 6.92 5.19 12.12 5.2 5.19 12.12 5.19h24.61q7.23 0 12.66-5.42 5.42-5.43 5.42-12.66V-290h50q12.75 0 21.37-8.63Q590-307.25 590-320v-120q0-12.75-8.63-21.37Q572.75-470 560-470H430v-60h130q12.75 0 21.37-8.63 8.63-8.63 8.63-21.38 0-12.76-8.63-21.37Q572.75-590 560-590h-50v-22.69q0-6.92-5.19-12.12-5.2-5.19-12.12-5.19h-24.61q-7.23 0-12.66 5.42-5.42 5.43-5.42 12.66V-590h-50q-12.75 0-21.37 8.63Q370-572.75 370-560v120q0 12.75 8.63 21.37Q387.25-410 400-410h130v60H400q-12.75 0-21.37 8.63-8.63 8.63-8.63 21.38 0 12.76 8.63 21.37Q387.25-290 400-290h50ZM252.31-100Q222-100 201-121q-21-21-21-51.31v-615.38Q180-818 201-839q21-21 51.31-21h269.3q14.64 0 27.9 5.62 13.26 5.61 23.1 15.46l186.31 186.31q9.85 9.84 15.46 23.1 5.62 13.26 5.62 27.9v429.3Q780-142 759-121q-21 21-51.31 21H252.31Z"/></svg>
